GraphQL_Foundation/stacked/GraphQL_Foundation-logo-stacked.svg

<?xml version="1.0" encoding="UTF-8" standalone="no"?>
<svg
   xmlns:dc="http://purl.org/dc/elements/1.1/"
   xmlns:cc="http://creativecommons.org/ns#"
   xmlns:rdf="http://www.w3.org/1999/02/22-rdf-syntax-ns#"
   xmlns:svg="http://www.w3.org/2000/svg"
   xmlns="http://www.w3.org/2000/svg"
   height="873.43237"
   width="666.75513"
   xml:space="preserve"
   viewBox="0 0 666.75513 873.43239"
   y="0px"
   x="0px"
   id="Layer_1"
   version="1.1"><metadata
     id="metadata49"><rdf:RDF><cc:Work
         rdf:about=""><dc:format>image/svg+xml</dc:format><dc:type
           rdf:resource="http://purl.org/dc/dcmitype/StillImage" /><dc:title></dc:title></cc:Work></rdf:RDF></metadata><defs
     id="defs47" /><style
     id="style2"
     type="text/css">
	.st0{fill:#E50695;}
</style><polygon
     transform="matrix(2.3436033,0,0,2.3436033,-357.16514,599.23077)"
     class="st0"
     points="157.1,98.9 174.1,98.9 174.1,94.7 157.1,94.7 157.1,81.5 175.8,81.5 175.8,77.3 152.4,77.3 152.4,116.4 157.1,116.4 "
     id="polygon4"
     style="fill:#e50695" /><path
     class="st0"
     d="m 96.556451,802.42118 c -18.51446,0 -31.16992,14.06162 -31.16992,35.62277 0,21.32679 12.4211,35.38841 31.16992,35.38841 18.748829,0 31.169929,-14.06162 31.169929,-35.38841 0,-21.56115 -12.65546,-35.62277 -31.169929,-35.62277 z m 0,61.4024 c -14.06162,0 -20.62371,-12.18673 -20.62371,-26.01399 0,-13.82726 6.32773,-26.014 20.62371,-26.014 14.061619,0 20.623709,12.4211 20.623709,26.014 0,13.82726 -6.56209,26.01399 -20.623709,26.01399 z"
     id="path6"
     style="fill:#e50695;stroke-width:2.34360337" /><path
     class="st0"
     d="m 188.4257,843.90295 c 0,12.88982 -9.84313,18.74883 -17.81138,18.74883 -8.67134,0 -14.99906,-6.32773 -14.99906,-16.40522 v -42.88794 h -10.54622 v 43.59102 c 0,17.57702 9.37441,26.014 22.26423,26.014 10.31186,0 17.10831,-5.62465 20.38935,-12.4211 h 0.70308 v 11.71801 h 10.54622 V 803.35862 H 188.4257 Z"
     id="path8"
     style="fill:#e50695;stroke-width:2.34360337" /><path
     class="st0"
     d="m 253.10915,802.42118 c -10.31185,0 -16.87394,4.6872 -19.92063,11.71801 h -0.93744 v -10.78057 h -10.07749 v 68.66757 h 10.54621 v -41.48177 c 0,-11.95238 7.49953,-18.74883 17.57703,-18.74883 9.84313,0 15.70214,6.32773 15.70214,17.1083 v 42.88794 h 10.54622 v -43.59102 c -0.23436,-17.34266 -9.60878,-25.77963 -23.43604,-25.77963 z"
     id="path10"
     style="fill:#e50695;stroke-width:2.34360337" /><path
     class="st0"
     d="m 344.9784,814.13919 h -0.93744 c -2.3436,-3.5154 -6.32773,-11.71801 -19.92063,-11.71801 -17.34266,0 -29.29504,13.82726 -29.29504,35.38841 0,21.79551 11.95238,35.62277 29.06068,35.62277 13.12418,0 17.81139,-8.20262 19.92063,-11.95238 h 1.1718 v 10.54621 h 10.0775 v -91.63488 h -10.54622 v 33.74788 z m -19.45191,49.68439 c -13.12417,0 -19.92062,-11.71801 -19.92062,-26.24835 0,-14.53034 6.56209,-25.77964 19.92062,-25.77964 12.88982,0 19.68627,10.31185 19.68627,25.77964 0,15.46778 -7.03081,26.24835 -19.68627,26.24835 z"
     id="path12"
     style="fill:#e50695;stroke-width:2.34360337" /><path
     class="st0"
     d="m 404.74029,802.42118 c -10.31186,0 -22.26424,3.5154 -27.42016,16.17086 l 10.07749,3.5154 c 2.3436,-4.92156 7.73389,-10.31185 17.81139,-10.31185 9.84313,0 14.53034,5.15593 14.53034,14.06162 0,5.15593 -5.15593,4.92157 -17.81139,6.32773 -12.65546,1.64052 -26.71708,4.45284 -26.71708,20.15499 0,13.35854 10.31186,21.09243 23.43604,21.09243 11.95237,0 18.2801,-6.32773 20.38935,-11.01494 h 0.46872 v 9.37441 h 10.54621 v -44.99718 c 0.23436,-21.79551 -16.40522,-24.37347 -25.31091,-24.37347 z m 14.99906,44.76282 c 0,8.67133 -6.79645,16.87394 -19.21755,16.87394 -8.43697,0 -14.53034,-3.74976 -14.53034,-11.01493 0,-7.96825 7.26517,-10.54622 15.46778,-11.71802 4.45285,-0.46872 16.40522,-1.87488 18.28011,-3.98412 z"
     id="path14"
     style="fill:#e50695;stroke-width:2.34360337" /><path
     class="st0"
     d="m 477.62635,862.65178 c -4.68721,0 -9.14005,-1.40616 -9.14005,-10.31185 v -40.07562 h 14.7647 v -8.90569 h -14.7647 v -16.40523 h -10.54622 v 16.40523 h -10.31185 v 8.90569 h 10.31185 v 42.88794 c 0,11.95238 9.60877,17.81139 18.51447,17.81139 3.98412,0 6.32773,-0.70309 7.96825,-1.17181 l -2.10924,-9.37441 c -0.93745,-0.23436 -2.34361,0.23436 -4.68721,0.23436 z"
     id="path16"
     style="fill:#e50695;stroke-width:2.34360337" /><rect
     x="503.40604"
     y="803.35858"
     class="st0"
     width="10.546215"
     height="68.667572"
     id="rect18"
     style="fill:#e50695;stroke-width:2.34360337" /><path
     class="st0"
     d="m 508.79627,777.81334 c -4.21848,0 -7.49953,3.28105 -7.49953,7.26517 0,3.98413 3.51541,7.26517 7.49953,7.26517 4.21849,0 7.49953,-3.28104 7.49953,-7.26517 0,-4.21848 -3.28104,-7.26517 -7.49953,-7.26517 z"
     id="path20"
     style="fill:#e50695;stroke-width:2.34360337" /><path
     class="st0"
     d="m 563.87095,802.42118 c -18.51447,0 -31.16992,14.06162 -31.16992,35.62277 0,21.32679 12.42109,35.38841 31.16992,35.38841 18.74883,0 31.16992,-14.06162 31.16992,-35.38841 -0.23436,-21.56115 -12.65545,-35.62277 -31.16992,-35.62277 z m 0,61.4024 c -14.06162,0 -20.62371,-12.18673 -20.62371,-26.01399 0,-13.82726 6.32773,-26.014 20.62371,-26.014 14.06162,0 20.62371,12.4211 20.62371,26.014 -0.23436,13.82726 -6.56209,26.01399 -20.62371,26.01399 z"
     id="path22"
     style="fill:#e50695;stroke-width:2.34360337" /><path
     class="st0"
     d="m 643.31914,802.42118 c -10.31189,0 -16.87398,4.6872 -19.92067,11.71801 h -0.93744 v -10.78057 h -10.07749 v 68.66757 h 10.54621 v -41.48177 c 0,-11.95238 7.49953,-18.74883 17.57703,-18.74883 9.84316,0 15.70216,6.32773 15.70216,17.1083 v 42.88794 h 10.5462 v -43.59102 c -0.2344,-17.34266 -9.6088,-25.77963 -23.436,-25.77963 z"
     id="path24"
     style="fill:#e50695;stroke-width:2.34360337" /><path
     class="st0"
     d="m 140.52658,686.64717 h -38.20073 v 14.53034 h 19.21754 c 0,11.48366 -9.14005,18.51447 -20.6237,18.51447 -14.295979,0 -23.436039,-10.54622 -23.436039,-29.99812 0,-18.74883 8.90569,-29.76376 22.967309,-29.76376 10.0775,0 16.87395,5.15592 19.68627,13.82725 h 19.68627 c -2.57796,-18.04574 -18.74883,-30.93556 -39.37254,-30.93556 -24.139109,0 -42.419219,17.34267 -42.419219,47.10643 0,29.06068 17.34267,46.87206 42.887949,46.87206 23.20167,0 39.84125,-14.53034 39.84125,-38.66945 z"
     id="path26"
     style="fill:#e50695;stroke-width:2.34360337" /><path
     class="st0"
     d="m 177.78987,678.91328 h -0.70308 v -11.95237 h -18.51446 v 68.66757 h 18.98318 v -38.90381 c 0,-8.43698 6.09337,-14.06162 13.82726,-14.06162 2.57797,0 4.68721,0.70308 6.56209,1.64052 l 5.62465,-15.70214 c -2.57796,-1.40616 -5.62465,-2.57797 -9.37441,-2.57797 -7.73389,0 -14.06162,4.45285 -16.40523,12.88982 z"
     id="path28"
     style="fill:#e50695;stroke-width:2.34360337" /><path
     class="st0"
     d="m 242.0046,666.02346 c -16.87394,0 -27.65452,7.96825 -30.23248,20.38935 l 17.57703,1.40617 c 1.40616,-4.45285 5.39028,-7.96826 12.18673,-7.96826 6.56209,0 10.0775,3.28105 10.0775,8.9057 0,4.45284 -4.68721,5.15592 -16.63959,6.32773 -13.5929,1.1718 -25.77963,5.859 -25.77963,21.09242 0,13.5929 9.60877,20.38935 22.73295,20.38935 10.07749,0 16.63958,-4.45284 20.15499,-10.78057 h 0.46872 v 9.60877 h 18.04574 v -46.16898 c 0.23436,-16.40523 -13.82726,-23.20168 -28.59196,-23.20168 z m 9.84314,44.99719 c 0,7.26517 -5.85901,12.65546 -14.29598,12.65546 -5.85901,0 -10.0775,-2.81233 -10.0775,-7.96826 0,-5.39028 4.45285,-7.96825 11.01494,-8.90569 4.21848,-0.46872 11.01493,-1.64052 13.12418,-3.04668 v 7.26517 z"
     id="path30"
     style="fill:#e50695;stroke-width:2.34360337" /><path
     class="st0"
     d="m 328.48357,666.02346 c -11.48366,0 -16.87395,6.79645 -19.45191,12.4211 h -0.93744 v -11.48365 h -18.74883 v 94.44721 h 18.98319 v -36.79457 h 0.46872 c 2.57796,5.62464 8.43697,12.18673 19.45191,12.18673 15.70214,0 27.88887,-12.42109 27.88887,-35.38841 0.23436,-23.67039 -12.65545,-35.38841 -27.65451,-35.38841 z m -6.09337,55.5434 c -9.14006,0 -14.29598,-7.96825 -14.53034,-20.38935 0,-12.18673 5.15592,-20.15499 14.53034,-20.15499 9.37441,0 14.53034,8.20262 14.53034,20.15499 0,12.18674 -5.15593,20.38935 -14.53034,20.38935 z"
     id="path32"
     style="fill:#e50695;stroke-width:2.34360337" /><path
     class="st0"
     d="m 412.61892,666.02346 c -10.31185,0 -17.34266,4.92157 -20.6237,12.88982 h -0.70309 v -34.91969 h -18.51446 v 91.63489 h 18.98318 v -39.84125 c 0,-8.9057 5.39029,-14.06162 13.12418,-14.06162 7.73389,0 12.18674,4.92156 12.18674,13.35854 v 40.30997 h 18.98319 V 691.8031 c 0.23436,-15.9365 -9.14006,-25.77964 -23.43604,-25.77964 z"
     id="path34"
     style="fill:#e50695;stroke-width:2.34360337" /><path
     class="st0"
     d="m 534.25194,743.12801 -13.12418,-16.40522 c 8.90569,-7.96825 14.53034,-20.62371 14.53034,-36.79457 0,-29.99812 -18.51447,-47.10643 -42.88794,-47.10643 -24.37348,0 -42.88794,17.10831 -42.88794,47.10643 0,29.76376 18.51446,47.10642 42.88794,47.10642 5.62464,0 11.01493,-0.93744 15.9365,-2.81232 l 7.26517,9.14005 h 18.28011 z m -24.8422,-30.7012 -6.79645,-8.67133 h -16.40522 l 11.71801,15.46778 c -1.64052,0.23436 -3.28104,0.46872 -4.92156,0.46872 -14.06162,0 -23.20168,-10.54622 -23.20168,-29.99812 0,-19.45191 9.14006,-29.99812 23.20168,-29.99812 14.06162,0 23.20167,10.54621 23.20167,29.99812 0,10.07749 -2.57796,17.81138 -6.79645,22.73295 z"
     id="path36"
     style="fill:#e50695;stroke-width:2.34360337" /><polygon
     transform="matrix(2.3436033,0,0,2.3436033,-291.16514,599.23077)"
     class="st0"
     points="360.6,19.1 360.6,58.2 385.6,58.2 385.6,51.4 368.8,51.4 368.8,19.1 "
     id="polygon38"
     style="fill:#e50695" /><path
     class="st0"
     d="m 576.15454,229.12102 c 26.198,-15.09712 35.0786,-48.84362 19.9815,-75.04157 -15.0971,-26.19794 -48.39961,-35.07861 -74.15352,-19.98149 -4.88437,2.66421 -8.88067,6.21647 -12.43292,9.76873 L 383.88825,70.60126 c 1.3321,-4.88438 2.22018,-10.21277 2.22018,-15.54115 C 386.10843,24.42182 361.68661,0 331.93641,0 c -29.75023,0 -54.61608,24.42182 -54.61608,55.06011 0,5.32838 0.88809,10.65677 2.22018,15.54115 l -125.66134,73.26543 c -3.55226,-3.55226 -7.54855,-7.10452 -12.43293,-9.76873 -25.75389,-15.54115 -59.056369,-6.21645 -74.153489,19.98149 -15.09712,26.19795 -5.77242,59.94445 19.98147,75.04157 4.44034,2.66419 9.3247,4.44032 14.653109,5.77242 v 146.53088 c -4.884379,1.3321 -9.768729,3.10825 -14.209059,5.77244 -26.19794,15.09712 -35.07861,48.84362 -19.98149,75.04157 15.09712,26.19795 47.955569,35.07861 74.153519,19.98149 4.44032,-2.66419 8.43661,-6.21647 11.98887,-9.76873 l 125.66134,73.26545 c -1.33209,4.88436 -2.22018,10.21275 -2.22018,15.54115 0,30.19424 24.42182,55.06009 54.17203,55.06009 29.75022,0 54.17202,-24.86585 54.17202,-55.06009 0,-6.21647 -0.88806,-11.98889 -2.66419,-17.3173 L 507.77347,471.119 c 3.55226,4.44032 8.43661,7.9926 13.32099,11.10082 26.19794,15.09712 59.50038,6.21646 74.15348,-19.98149 15.0971,-26.19795 6.2165,-59.94445 -19.9815,-75.04157 -4.4403,-2.66419 -9.3247,-4.44034 -14.209,-5.77244 V 234.89344 c 5.7724,-1.3321 10.2127,-3.10823 15.0971,-5.77242 z M 129.9014,381.86835 c -0.88806,0 -1.33209,-0.44403 -2.22018,-0.44403 V 234.89344 c 13.76502,-3.55226 26.19795,-12.43291 34.19055,-25.7539 7.54857,-13.32099 8.88067,-28.86214 5.32839,-42.62716 L 292.8615,93.24693 c 0.44404,0.44403 0.88807,0.88806 1.3321,1.33209 z m 241.99796,142.09057 c -9.76871,-11.10083 -24.4218,-17.76131 -39.96295,-17.76131 -15.54117,0 -29.30619,6.66048 -39.07491,16.87324 L 166.75613,449.80541 c 0,-0.88807 0.44403,-1.3321 0.44403,-2.22017 h 328.58441 c 0.44404,1.3321 0.44404,2.22017 0.88807,3.55228 z M 501.55699,407.17823 c -2.66419,4.44035 -4.44032,9.3247 -5.77242,14.65309 H 167.64419 c -1.3321,-4.88435 -3.10822,-9.76871 -5.77242,-14.65309 -2.66419,-4.44032 -5.77242,-8.88064 -9.76873,-12.43292 l 164.2922,-287.28933 c 4.88437,1.33212 9.76873,2.22018 15.09712,2.22018 5.3284,0 10.21276,-0.88806 15.09713,-2.22018 l 164.2922,287.28933 c -3.10822,3.55228 -6.6605,7.54857 -9.3247,12.43292 z m 34.19055,-25.75391 c -0.88806,0 -1.33209,0.44403 -2.22018,0.44403 L 369.23516,94.57902 c 0.44404,-0.44403 0.88807,-0.88806 1.3321,-1.33209 l 125.66135,73.26545 c -3.99631,13.76502 -2.6642,28.86214 5.32838,42.62716 7.54857,13.32099 19.9815,22.20164 34.19055,25.7539 0,0 0,146.53088 0,146.53088 z"
     id="path40"
     style="fill:#e50695;stroke-width:4.44033003" /></svg>

<?xml version="1.0" encoding="UTF-8"?>
<!DOCTYPE svg PUBLIC "-//W3C//DTD SVG 1.1//EN" "http://www.w3.org/Graphics/SVG/1.1/DTD/svg11.dtd">
<svg version="1.1" xmlns="http://www.w3.org/2000/svg" xmlns:xlink="http://www.w3.org/1999/xlink" x="0" y="0" width="666.755" height="873.432" viewBox="0, 0, 666.755, 873.432">
  <g id="Layer_1">
    <path d="M11.015,831.013 L50.856,831.013 L50.856,821.17 L11.015,821.17 L11.015,790.234 L54.84,790.234 L54.84,780.391 L0,780.391 L0,872.026 L11.015,872.026 z" fill="#E434AA" id="polygon4"/>
    <path d="M96.556,802.421 C78.042,802.421 65.387,816.483 65.387,838.044 C65.387,859.371 77.808,873.432 96.556,873.432 C115.305,873.432 127.726,859.371 127.726,838.044 C127.726,816.483 115.071,802.421 96.556,802.421 z M96.556,863.824 C82.495,863.824 75.933,851.637 75.933,837.81 C75.933,823.982 82.26,811.796 96.556,811.796 C110.618,811.796 117.18,824.217 117.18,837.81 C117.18,851.637 110.618,863.824 96.556,863.824 z" fill="#E434AA" id="path6"/>
    <path d="M188.426,843.903 C188.426,856.793 178.583,862.652 170.614,862.652 C161.943,862.652 155.615,856.324 155.615,846.247 L155.615,803.359 L145.069,803.359 L145.069,846.95 C145.069,864.527 154.443,872.964 167.333,872.964 C177.645,872.964 184.442,867.339 187.723,860.543 L188.426,860.543 L188.426,872.261 L198.972,872.261 L198.972,803.359 L188.426,803.359 z" fill="#E434AA" id="path8"/>
    <path d="M253.109,802.421 C242.797,802.421 236.235,807.108 233.189,814.139 L232.251,814.139 L232.251,803.359 L222.174,803.359 L222.174,872.026 L232.72,872.026 L232.72,830.544 C232.72,818.592 240.219,811.796 250.297,811.796 C260.14,811.796 265.999,818.123 265.999,828.904 L265.999,871.792 L276.545,871.792 L276.545,828.201 C276.311,810.858 266.936,802.421 253.109,802.421 z" fill="#E434AA" id="path10"/>
    <path d="M344.978,814.139 L344.041,814.139 C341.697,810.624 337.713,802.421 324.12,802.421 C306.778,802.421 294.825,816.248 294.825,837.81 C294.825,859.605 306.778,873.432 323.886,873.432 C337.01,873.432 341.697,865.23 343.807,861.48 L344.978,861.48 L344.978,872.026 L355.056,872.026 L355.056,780.391 L344.51,780.391 L344.51,814.139 z M325.526,863.824 C312.402,863.824 305.606,852.106 305.606,837.575 C305.606,823.045 312.168,811.796 325.526,811.796 C338.416,811.796 345.213,822.107 345.213,837.575 C345.213,853.043 338.182,863.824 325.526,863.824 z" fill="#E434AA" id="path12"/>
    <path d="M404.74,802.421 C394.428,802.421 382.476,805.937 377.32,818.592 L387.398,822.107 C389.741,817.186 395.132,811.796 405.209,811.796 C415.052,811.796 419.739,816.952 419.739,825.857 C419.739,831.013 414.583,830.779 401.928,832.185 C389.272,833.826 375.211,836.638 375.211,852.34 C375.211,865.698 385.523,873.432 398.647,873.432 C410.599,873.432 416.927,867.105 419.036,862.417 L419.505,862.417 L419.505,871.792 L430.051,871.792 L430.051,826.795 C430.286,804.999 413.646,802.421 404.74,802.421 z M419.739,847.184 C419.739,855.855 412.943,864.058 400.522,864.058 C392.085,864.058 385.991,860.308 385.991,853.043 C385.991,845.075 393.257,842.497 401.459,841.325 C405.912,840.856 417.864,839.45 419.739,837.341 z" fill="#E434AA" id="path14"/>
    <path d="M477.626,862.652 C472.939,862.652 468.486,861.246 468.486,852.34 L468.486,812.264 L483.251,812.264 L483.251,803.359 L468.486,803.359 L468.486,786.953 L457.94,786.953 L457.94,803.359 L447.628,803.359 L447.628,812.264 L457.94,812.264 L457.94,855.152 C457.94,867.105 467.549,872.964 476.455,872.964 C480.439,872.964 482.782,872.261 484.423,871.792 L482.314,862.417 C481.376,862.183 479.97,862.652 477.626,862.652 z" fill="#E434AA" id="path16"/>
    <path d="M503.406,803.359 L513.952,803.359 L513.952,872.026 L503.406,872.026 z" fill="#E434AA" id="rect18"/>
    <path d="M508.796,777.813 C504.578,777.813 501.297,781.094 501.297,785.079 C501.297,789.063 504.812,792.344 508.796,792.344 C513.015,792.344 516.296,789.063 516.296,785.079 C516.296,780.86 513.015,777.813 508.796,777.813 z" fill="#E434AA" id="path20"/>
    <path d="M563.871,802.421 C545.356,802.421 532.701,816.483 532.701,838.044 C532.701,859.371 545.122,873.432 563.871,873.432 C582.62,873.432 595.041,859.371 595.041,838.044 C594.807,816.483 582.385,802.421 563.871,802.421 z M563.871,863.824 C549.809,863.824 543.247,851.637 543.247,837.81 C543.247,823.982 549.575,811.796 563.871,811.796 C577.933,811.796 584.495,824.217 584.495,837.81 C584.26,851.637 577.933,863.824 563.871,863.824 z" fill="#E434AA" id="path22"/>
    <path d="M643.319,802.421 C633.007,802.421 626.445,807.108 623.398,814.139 L622.461,814.139 L622.461,803.359 L612.384,803.359 L612.384,872.026 L622.93,872.026 L622.93,830.544 C622.93,818.592 630.429,811.796 640.507,811.796 C650.35,811.796 656.209,818.123 656.209,828.904 L656.209,871.792 L666.755,871.792 L666.755,828.201 C666.521,810.858 657.146,802.421 643.319,802.421 z" fill="#E434AA" id="path24"/>
    <path d="M140.527,686.647 L102.326,686.647 L102.326,701.177 L121.543,701.177 C121.543,712.661 112.403,719.692 100.92,719.692 C86.624,719.692 77.484,709.146 77.484,689.694 C77.484,670.945 86.389,659.93 100.451,659.93 C110.528,659.93 117.325,665.086 120.137,673.757 L139.824,673.757 C137.246,655.712 121.075,642.822 100.451,642.822 C76.312,642.822 58.032,660.164 58.032,689.928 C58.032,718.989 75.374,736.8 100.92,736.8 C124.121,736.8 140.761,722.27 140.761,698.131 z" fill="#E434AA" id="path26"/>
    <path d="M177.79,678.913 L177.087,678.913 L177.087,666.961 L158.572,666.961 L158.572,735.628 L177.556,735.628 L177.556,696.725 C177.556,688.288 183.649,682.663 191.383,682.663 C193.961,682.663 196.07,683.366 197.945,684.304 L203.57,668.601 C200.992,667.195 197.945,666.023 194.195,666.023 C186.461,666.023 180.133,670.476 177.79,678.913 z" fill="#E434AA" id="path28"/>
    <path d="M242.005,666.023 C225.131,666.023 214.35,673.992 211.772,686.413 L229.349,687.819 C230.755,683.366 234.739,679.851 241.536,679.851 C248.098,679.851 251.613,683.132 251.613,688.756 C251.613,693.209 246.926,693.912 234.974,695.084 C221.381,696.256 209.194,700.943 209.194,716.177 C209.194,729.769 218.803,736.566 231.927,736.566 C242.005,736.566 248.567,732.113 252.082,725.785 L252.551,725.785 L252.551,735.394 L270.597,735.394 L270.597,689.225 C270.831,672.82 256.769,666.023 242.005,666.023 z M251.848,711.021 C251.848,718.286 245.989,723.676 237.552,723.676 C231.693,723.676 227.474,720.864 227.474,715.708 C227.474,710.318 231.927,707.74 238.489,706.802 C242.708,706.333 249.504,705.162 251.613,703.755 L251.613,711.021 z" fill="#E434AA" id="path30"/>
    <path d="M328.484,666.023 C317,666.023 311.61,672.82 309.032,678.445 L308.094,678.445 L308.094,666.961 L289.345,666.961 L289.345,761.408 L308.329,761.408 L308.329,724.614 L308.797,724.614 C311.375,730.238 317.234,736.8 328.249,736.8 C343.951,736.8 356.138,724.379 356.138,701.412 C356.372,677.741 343.483,666.023 328.484,666.023 z M322.39,721.567 C313.25,721.567 308.094,713.599 307.86,701.177 C307.86,688.991 313.016,681.022 322.39,681.022 C331.765,681.022 336.921,689.225 336.921,701.177 C336.921,713.364 331.765,721.567 322.39,721.567 z" fill="#E434AA" id="path32"/>
    <path d="M412.619,666.023 C402.307,666.023 395.276,670.945 391.995,678.913 L391.292,678.913 L391.292,643.994 L372.778,643.994 L372.778,735.628 L391.761,735.628 L391.761,695.787 C391.761,686.882 397.151,681.726 404.885,681.726 C412.619,681.726 417.072,686.647 417.072,695.084 L417.072,735.394 L436.055,735.394 L436.055,691.803 C436.289,675.867 426.915,666.023 412.619,666.023 z" fill="#E434AA" id="path34"/>
    <path d="M534.252,743.128 L521.128,726.723 C530.033,718.755 535.658,706.099 535.658,689.928 C535.658,659.93 517.144,642.822 492.77,642.822 C468.397,642.822 449.882,659.93 449.882,689.928 C449.882,719.692 468.397,737.035 492.77,737.035 C498.395,737.035 503.785,736.097 508.707,734.222 L515.972,743.362 L534.252,743.362 z M509.41,712.427 L502.613,703.755 L486.208,703.755 L497.926,719.223 C496.286,719.458 494.645,719.692 493.005,719.692 C478.943,719.692 469.803,709.146 469.803,689.694 C469.803,670.242 478.943,659.696 493.005,659.696 C507.066,659.696 516.206,670.242 516.206,689.694 C516.206,699.771 513.628,707.505 509.41,712.427 z" fill="#E434AA" id="path36"/>
    <path d="M553.938,643.994 L553.938,735.628 L612.528,735.628 L612.528,719.692 L573.156,719.692 L573.156,643.994 z" fill="#E434AA" id="polygon38"/>
    <path d="M576.155,229.121 C602.353,214.024 611.233,180.277 596.136,154.079 C581.039,127.881 547.736,119.001 521.983,134.098 C517.098,136.762 513.102,140.314 509.55,143.867 L383.888,70.601 C385.22,65.717 386.108,60.388 386.108,55.06 C386.108,24.422 361.687,-0 331.936,-0 C302.186,-0 277.32,24.422 277.32,55.06 C277.32,60.388 278.208,65.717 279.54,70.601 L153.879,143.867 C150.327,140.314 146.331,136.762 141.446,134.098 C115.692,118.557 82.39,127.881 67.293,154.079 C52.196,180.277 61.52,214.024 87.274,229.121 C91.715,231.785 96.599,233.561 101.927,234.893 L101.927,381.424 C97.043,382.756 92.159,384.533 87.718,387.197 C61.52,402.294 52.64,436.04 67.737,462.238 C82.834,488.436 115.692,497.317 141.89,482.22 C146.331,479.556 150.327,476.003 153.879,472.451 L279.54,545.717 C278.208,550.601 277.32,555.929 277.32,561.258 C277.32,591.452 301.742,616.318 331.492,616.318 C361.243,616.318 385.664,591.452 385.664,561.258 C385.664,555.041 384.776,549.269 383,543.94 L507.773,471.119 C511.326,475.559 516.21,479.112 521.094,482.22 C547.292,497.317 580.595,488.436 595.248,462.238 C610.345,436.04 601.464,402.294 575.266,387.197 C570.826,384.533 565.942,382.756 561.057,381.424 L561.057,234.893 C566.83,233.561 571.27,231.785 576.155,229.121 z M129.901,381.868 C129.013,381.868 128.569,381.424 127.681,381.424 L127.681,234.893 C141.446,231.341 153.879,222.461 161.872,209.14 C169.42,195.819 170.752,180.277 167.2,166.512 L292.862,93.247 C293.306,93.691 293.75,94.135 294.194,94.579 z M371.899,523.959 C362.131,512.858 347.478,506.198 331.936,506.198 C316.395,506.198 302.63,512.858 292.862,523.071 L166.756,449.805 C166.756,448.917 167.2,448.473 167.2,447.585 L495.785,447.585 C496.229,448.917 496.229,449.805 496.673,451.138 z M501.557,407.178 C498.893,411.619 497.117,416.503 495.785,421.831 L167.644,421.831 C166.312,416.947 164.536,412.063 161.872,407.178 C159.208,402.738 156.099,398.298 152.103,394.745 L316.395,107.456 C321.28,108.788 326.164,109.676 331.492,109.676 C336.821,109.676 341.705,108.788 346.589,107.456 L510.882,394.745 C507.773,398.298 504.221,402.294 501.557,407.178 z M535.748,381.424 C534.859,381.424 534.415,381.868 533.527,381.868 L369.235,94.579 C369.679,94.135 370.123,93.691 370.567,93.247 L496.229,166.512 C492.232,180.277 493.564,195.375 501.557,209.14 C509.106,222.461 521.539,231.341 535.748,234.893 C535.748,234.893 535.748,381.424 535.748,381.424 z" fill="#E434AA" id="path40"/>
  </g>
</svg>
